app/assets/images/heroicons/micro/device-phone-mobile.svg

<svg width="16" height="16" viewBox="0 0 16 16" fill="none" xmlns="http://www.w3.org/2000/svg">
<path d="M7.25 11.5C6.83579 11.5 6.5 11.8358 6.5 12.25C6.5 12.6642 6.83579 13 7.25 13H8.75C9.16421 13 9.5 12.6642 9.5 12.25C9.5 11.8358 9.16421 11.5 8.75 11.5H7.25Z" fill="black"/>
<path fill-rule="evenodd" clip-rule="evenodd" d="M6 1C4.61929 1 3.5 2.11929 3.5 3.5V12.5C3.5 13.8807 4.61929 15 6 15H10C11.3807 15 12.5 13.8807 12.5 12.5V3.5C12.5 2.11929 11.3807 1 10 1H6ZM10 2.5H9.5V3C9.5 3.27614 9.27614 3.5 9 3.5H7C6.72386 3.5 6.5 3.27614 6.5 3V2.5H6C5.44771 2.5 5 2.94772 5 3.5V12.5C5 13.0523 5.44772 13.5 6 13.5H10C10.5523 13.5 11 13.0523 11 12.5V3.5C11 2.94772 10.5523 2.5 10 2.5Z" fill="black"/>
</svg>

<svg xmlns="http://www.w3.org/2000/svg" viewBox="0 0 16 16" fill="currentColor" aria-hidden="true" data-slot="icon">
  <path d="M7.25 11.5a.75.75 0 0 0 0 1.5h1.5a.75.75 0 0 0 0-1.5h-1.5Z"/>
  <path fill-rule="evenodd" d="M6 1a2.5 2.5 0 0 0-2.5 2.5v9A2.5 2.5 0 0 0 6 15h4a2.5 2.5 0 0 0 2.5-2.5v-9A2.5 2.5 0 0 0 10 1H6Zm4 1.5h-.5V3a.5.5 0 0 1-.5.5H7a.5.5 0 0 1-.5-.5v-.5H6a1 1 0 0 0-1 1v9a1 1 0 0 0 1 1h4a1 1 0 0 0 1-1v-9a1 1 0 0 0-1-1Z" clip-rule="evenodd"/>
</svg>
